!!!COM: Mozart
!!!OTL: 12 Variations on "Ah Vous dirais-je, Maman" for the Piano
!!!Variation: 8 b
**function	**harm	**kern	**kern
*	*	*clefF4	*clefG2
*	*	*k[b-e-a-]	*k[b-e-a-]
*M2/4	*M2/4	*M2/4	*M2/4
*c:	*c:	*c:	*c:
=201	=201	=201	=201
*	*	*	*^
2D	2V	[2GG [2G	8r	2g
.	.	.	(8gg	.
.	.	.	8aa-L	.
.	.	.	8ggJ)	.
=202	=202	=202	=202	=202
4D	4viio/V	2GG] 2G]	(4ff#	(4a
4D	4V7	.	4ff)	4b)
=203	=203	=203	=203	=203
4D	4Ic	[2G	4ee	8ccL
.	.	.	.	(8gJ
4D	4ic	.	[4ee-	8a-L
.	.	.	.	8gJ)
=204	=204	=204	=204	=204
*	*	*^	*	*
4D	4viioD7	2G]	4A	4ee-]	(4f#
4D	4V7	.	4B	[4dd	4f)
*	*	*v	*v	*	*
=205	=205	=205	=205	=205
4D	4Ic	8cL	4dd]	4e
.	.	8GGJ 8G	.	.
4D	4ic	8AA-L 8A-	[4cc	[4e-
.	.	8GGJ 8G	.	.
=206	=206	=206	=206	=206
4D	4viio/V	4FF# 4F#	4a 4cc]	4e-]
4D	4viioD7c	4FF 4F	4b	4a-
=207	=207	=207	=207	=207
4D	4Ib	4EE 4E	8cc'L	2g
.	.	.	8dd'J	.
4D	4ib	4EE- 4E-	8ee-'L	.
.	.	.	8ff'J	.
=208	=208	=208	=208	=208
4D	4Vc	4DD 4D	(8ggL	2g
.	.	.	8ffJ)	.
4D	4V	4GGG 4GG	8ee-'L	.
.	.	.	8dd'J	.
*	*	*	*v	*v
*-	*-	*-	*-
